resources/svg/icons/link.svg

<svg viewBox="0 0 20 9" fill="none" xmlns="http://www.w3.org/2000/svg"><path fill-rule="evenodd" clip-rule="evenodd" d="M18.2107 4.75703C18.2108 4.39514 18.1396 4.03679 18.0011 3.70244C17.8626 3.36809 17.6596 3.0643 17.4038 2.80841C17.1479 2.55251 16.8441 2.34954 16.5097 2.21107C16.1754 2.07261 15.817 2.00136 15.4551 2.00141L10.7793 2.00141C10.3384 2.00122 9.90383 2.10685 9.51219 2.30944C9.12055 2.51202 8.78326 2.80565 8.52864 3.16563C8.27402 3.52562 8.10952 3.94146 8.04895 4.37822C7.98839 4.81497 8.03353 5.25988 8.18058 5.67557C8.22423 5.81201 8.21302 5.96008 8.14934 6.0884C8.08567 6.21672 7.97452 6.3152 7.83947 6.36297C7.70442 6.41073 7.55607 6.40403 7.42588 6.34427C7.29568 6.28452 7.19388 6.17642 7.14203 6.04288C6.93637 5.46105 6.8733 4.83836 6.95814 4.2271C7.04297 3.61584 7.27322 3.03386 7.62956 2.53002C7.9859 2.02618 8.45792 1.61519 9.00599 1.33155C9.55406 1.04792 10.1622 0.899926 10.7793 0.899994L15.4551 0.899995C15.9658 0.893388 16.4728 0.988272 16.9465 1.17914C17.4203 1.37001 17.8514 1.65307 18.2149 2.01188C18.5784 2.3707 18.867 2.79812 19.064 3.26937C19.261 3.74061 19.3624 4.24628 19.3624 4.75703C19.3624 5.26778 19.261 5.77345 19.064 6.2447C18.867 6.71594 18.5784 7.14337 18.2149 7.50218C17.8514 7.86099 17.4203 8.14405 16.9465 8.33492C16.4728 8.52579 15.9658 8.62067 15.4551 8.61407L13.6295 8.61407C13.5555 8.61668 13.4818 8.60437 13.4127 8.57786C13.3436 8.55136 13.2806 8.51122 13.2273 8.45982C13.1741 8.40843 13.1317 8.34683 13.1028 8.27872C13.0739 8.2106 13.059 8.13736 13.059 8.06336C13.059 7.98936 13.0739 7.91611 13.1028 7.848C13.1317 7.77988 13.1741 7.71829 13.2273 7.66689C13.2806 7.6155 13.3436 7.57535 13.4127 7.54885C13.4818 7.52235 13.5555 7.51004 13.6295 7.51265L15.4551 7.51265C15.817 7.5127 16.1754 7.44145 16.5097 7.30299C16.8441 7.16452 17.1479 6.96155 17.4038 6.70565C17.6596 6.44976 17.8626 6.14596 18.0011 5.81162C18.1396 5.47727 18.2108 5.11892 18.2107 4.75703ZM12.155 3.13504C12.2928 3.08643 12.4443 3.09453 12.5761 3.15756C12.7079 3.2206 12.8093 3.3334 12.858 3.47118C13.0636 4.05302 13.1267 4.6757 13.0419 5.28696C12.957 5.89822 12.7268 6.4802 12.3704 6.98404C12.0141 7.48788 11.5421 7.89887 10.994 8.18251C10.4459 8.46614 9.83781 8.61413 9.2207 8.61407L4.54487 8.61407C4.03416 8.62067 3.52722 8.52579 3.05347 8.33492C2.57972 8.14405 2.14859 7.86099 1.78511 7.50218C1.42162 7.14337 1.13301 6.71594 0.936031 6.2447C0.739049 5.77345 0.637615 5.26778 0.637615 4.75703C0.637615 4.24628 0.739049 3.74061 0.936031 3.26937C1.13301 2.79812 1.42162 2.3707 1.78511 2.01188C2.14859 1.65307 2.57972 1.37001 3.05347 1.17914C3.52722 0.988272 4.03416 0.893388 4.54487 0.899995L6.37052 0.899994C6.44448 0.897384 6.5182 0.909696 6.58729 0.936196C6.65639 0.962696 6.71944 1.00284 6.77268 1.05424C6.82592 1.10563 6.86826 1.16723 6.89718 1.23534C6.92611 1.30346 6.94101 1.3767 6.94101 1.4507C6.94101 1.5247 6.92611 1.59795 6.89718 1.66606C6.86826 1.73418 6.82592 1.79577 6.77268 1.84717C6.71944 1.89856 6.65639 1.93871 6.58729 1.96521C6.5182 1.99171 6.44448 2.00402 6.37052 2.00141L4.54487 2.00141C3.81404 2.00141 3.11313 2.29173 2.59635 2.80851C2.34047 3.0644 2.13749 3.36817 1.99901 3.7025C1.86053 4.03683 1.78925 4.39516 1.78925 4.75703C1.78925 5.1189 1.86053 5.47723 1.99901 5.81156C2.13749 6.14589 2.34047 6.44966 2.59635 6.70555C3.11313 7.22233 3.81404 7.51265 4.54487 7.51265L9.2207 7.51265C9.66163 7.51284 10.0962 7.40721 10.4878 7.20462C10.8794 7.00204 11.2167 6.70841 11.4714 6.34843C11.726 5.98844 11.8905 5.5726 11.951 5.13584C12.0116 4.69909 11.9665 4.25418 11.8194 3.83849C11.7953 3.77026 11.7848 3.69795 11.7886 3.62567C11.7923 3.55339 11.8103 3.48257 11.8415 3.41724C11.8727 3.35192 11.9164 3.29337 11.9702 3.24495C12.024 3.19653 12.0868 3.15918 12.155 3.13504Z" fill="currentColor"/></svg>

<svg clip-rule="evenodd" fill-rule="evenodd" stroke-linejoin="round" stroke-miterlimit="2" viewBox="0 0 20 9" xmlns="http://www.w3.org/2000/svg"><path d="m18.211 4.757c0-.362-.071-.72-.21-1.055-.138-.334-.341-.638-.597-.894-.256-.255-.56-.458-.894-.597-.335-.138-.693-.21-1.055-.21h-4.676c-.441 0-.875.106-1.267.308-.391.203-.729.497-.983.857-.255.36-.419.775-.48 1.212s-.015.882.132 1.298c.043.136.032.284-.032.412-.063.129-.174.227-.31.275-.135.048-.283.041-.413-.019-.13-.059-.232-.168-.284-.301-.206-.582-.269-1.205-.184-1.816s.315-1.193.672-1.697c.356-.504.828-.915 1.376-1.198.548-.284 1.156-.432 1.773-.432h4.676c.511-.007 1.018.088 1.492.279.473.191.904.474 1.268.833.363.359.652.786.849 1.257.197.472.298.977.298 1.488s-.101 1.016-.298 1.488c-.197.471-.486.898-.849 1.257-.364.359-.795.642-1.268.833-.474.191-.981.286-1.492.279h-1.825c-.074.003-.148-.01-.217-.036-.069-.027-.132-.067-.186-.118-.053-.052-.095-.113-.124-.181s-.044-.142-.044-.216.015-.147.044-.215.071-.13.124-.181c.054-.051.117-.092.186-.118.069-.027.143-.039.217-.036h1.825c.362 0 .72-.072 1.055-.21.334-.138.638-.341.894-.597s.459-.56.597-.894c.139-.335.21-.693.21-1.055zm-6.056-1.622c.138-.049.289-.04.421.023s.233.175.282.313c.206.582.269 1.205.184 1.816s-.315 1.193-.672 1.697c-.356.504-.828.915-1.376 1.199-.548.283-1.156.431-1.773.431h-4.676c-.511.007-1.018-.088-1.492-.279-.473-.191-.904-.474-1.268-.833-.363-.359-.652-.786-.849-1.257-.197-.472-.298-.977-.298-1.488s.101-1.016.298-1.488c.197-.471.486-.898.849-1.257.364-.359.795-.642 1.268-.833.474-.191.981-.286 1.492-.279h1.826c.073-.003.147.01.216.036.069.027.132.067.186.118.053.052.095.113.124.181s.044.142.044.216-.015.147-.044.215-.071.13-.124.181c-.054.052-.117.092-.186.118-.069.027-.143.039-.216.036h-1.826c-.731 0-1.432.291-1.949.808-.256.255-.459.559-.597.894-.138.334-.21.692-.21 1.054s.072.72.21 1.055c.138.334.341.638.597.894.517.516 1.218.807 1.949.807h4.676c.441 0 .875-.106 1.267-.308.391-.203.729-.497.983-.857.255-.36.42-.775.48-1.212.061-.437.016-.882-.132-1.298-.024-.068-.034-.14-.03-.212.003-.073.021-.143.053-.209.031-.065.074-.124.128-.172s.117-.086.185-.11z" transform="matrix(1.0681 0 0 1.0681 -.681023 -.580997)"/></svg>
